X:1
T:Vernon (Ingalls), 88.88.88
T:Vernon (Ingalls), 88.88.88
T:Jeremiah Ingalls, 1805
T:Public Domain Courtesy of the Cyber Hymnal™
C:Jeremiah Ingalls, 1805
Z:Public Domain
Z:Courtesy of the Cyber Hymnal™
%%score ( 1 2 ) ( 3 4 )
L:1/8
Q:1/4=105
M:4/4
K:F
V:1 treble 
V:2 treble 
V:3 bass 
V:4 bass 
V:1
 [DF]2 | [DA]2 [DA]2 [DA]2 (GF) | [DA]2 (GF) D3 (E/F/) | [EG]3 [CA] [CG]2 [A,D]2 | %4
 [DF]2 (F>G) !fermata![CF]2 [DF]2 | [DA]2 [DA]2 [DA]2 (GF) | [DA]2 (GF) D3 (E/F/) | %7
 [EG]3 [CA] [CG]2 [A,D]2 | [DF]2 (F>G) !fermata![CF]2 [Fc]2 | [Af]3 [Ge] [Fd]3 [Ec] | %10
 (dc) (AG) [CF]3 [EG] | [FA]2 [G^c]2 [Fd]2 (AG) | [DF]2 D2 !fermata!D2 |] %13
V:2
 x2 | x6 D2 | x2 B,2 D3 D | x8 | x2 D2 x4 | x6 D2 | x2 B,2 D3 D | x8 | x2 D2 x4 | x8 | F2 C2 x4 | %11
 x6 D2 | x2 D2 D2 |] %13
V:3
 [D,A,]2 | [D,F,]2 [D,F,]2 [D,F,]2 (G,A,) | [D,F,]2 [G,,G,]2 [D,F,]3 [D,F,] | %3
 [C,E,]3 [A,,E,] [C,E,]2 [D,F,]2 | [B,,F,]2 [B,,B,]2 !fermata![F,A,]2 [D,A,]2 | %5
 [D,F,]2 [D,F,]2 [D,F,]2 (G,A,) | [D,F,]2 [G,,G,]2 [D,F,]3 [D,F,] | %7
 [C,E,]3 [A,,E,] [C,E,]2 [D,F,]2 | [B,,F,]2 [B,,B,]2 !fermata![F,A,]2 [F,A,]2 | %9
 [F,C]3 [C,C] [D,A,]3 [A,,A,] | [D,A,]2 [E,G,]2 [F,A,]3 [C,C] | [F,C]2 [E,G,]2 [D,A,]2 [D,F,]2 | %12
 [A,,A,]2 [A,,F,]2 !fermata![D,F,]2 |] %13
V:4
 x2 | x6 D,2 | x8 | x8 | x8 | x6 D,2 | x8 | x8 | x8 | x8 | x8 | x8 | x6 |] %13

